X:1
T:Fill your Glasses
M:2/4
Q:1/4=120
K:D
A4F3G|A4B3A|G3FG3A|F4D3A|A4F3G|A4B3A|G3FG3A|
F7F|F3FB3A|A3BG3E|E3EA3G|G4F3F|F4B3A|A3BG3E|
E3EA3G|F4A2A2|A4B2B2|A4G2G2|F2F2F2E2|D4A2A2|
A4B2B2|A4G2G2|F2F2A2A2|d7/2||
